X:82
T:Birks of Aberfeldie, The
C:arr. Carlo Minasi
M:C
L:1/8
B:Chappell's One Hundred Scotch Melodies
B:Arranged for the Concertina by Carlo Minasi
Q:"Allegretto  "1/4=140
Z:Peter Dunk 2012
K:Bm
!p!(D>EFA) (d>edB)|(d>edB) (c/d/e) (d/e/f)|\
(D>EFA) ([dF]>[eA][fd][eA])|([dF][BG][AF]F) L(E2 B-) H||
!mf!B|(D>EFd) (AFA>F)|(ADFA) (B/A/G/F/) E>F|\
(D>EFA) ([dF]>[eA][fd][eA])|([dF][BG][AF]F) L(E2 B)!D.C.!z||

